X: 1
T: Dark Girl Dressed In Blue
R: polka
M: 2/4
L: 1/8
K: Ddor
|: FA Ad | B/c/d A>F | GB AF | BE G/F/E/D/ | FA Ad | B/c/d A>F | GB A/B/A/G/ | FD D2 :|
|: FA A/B/d/e/ | ~f>d ed | Bd AF | BE G/F/E/D/ | FA A/B/d/e/ | f>d ed | Bd A/B/A/G/ | FD D2 :|


Tune 1534	Setting 14937

